X:1
T:El Chinchecle
R:bourre
C:trad. Bielsa (Huesca)
H:Se bailaba en la procesin de la Virgen por las calles de Bielsa a son de gaita.
A:Pirineo Central
O:Bielsa (Huesca) ESPAA
Z:L. M. Escalona
M:3/8
L:1/16
Q:1/4=120
K:C
|:C2|G2 GA GF|E2E2F2|D2D2G2|E2E2C2|G2 GA GF|E2E2F2|
D2D2G2|C4:|
|:G2|c4 c2|BG F2F2|G4 A2|A2G2G2|c4 c2|BG F2F2|G4A2|
A2G2G2|A4 G2|F2D2D2|G4 F2|E2C2C2|E2EDC2|G2G2G2|
F2E2D2|E2C2C2|E2EDC2|G2G2G2|F2E2D2|C4:|
M:2/4
z2|:A2|G2C2G2 FE|F2 ED C2C2|D2E2F2 ED|E2G2F2E2|
E2G2F2D2|C4:|
